X:37
T:Redemption
T:P.M.
S:John Moore's Book 3
Z:Transcribed by Edmund Spriggs 05/2021
%%VWML: Moore1-4495-p28-0
F:https://www.vwml.org/record/Moore3/4495/p28
N:The manuscript has some marks and illegible words which have not been copied.
N:The first part has repeat marks at the end of bar 8. These are lacking in the second part.
N:In bar 5 of the second part, the minim should be a dotted minim.
N:Bar 13 of the first part is missing a beat.
M:C
L:1/4
V:1 clef=treble
V:2 clef=bass
K:D
[V:1]A>FD2|B2A2|(G>F G/A/ B/c/)|d2A2|
[V:2]D,2D,2|G,2F,2|E,3E,|D,2D,2|
[V:1]F3F|GBd>B|{A}^G3G|Ace2:|
[V:2]D,3C,|B,,2G,,2|E,3D,|C,2A,,2|]
[V:1](d3c/B/)|A3(F/A/)|d3(c/B/)|A2Fc|
[V:2]D,2D,2|D,2D,2|D,3D,|D,2D,z1|D,2D,2|
[V:1](A/f/)(fd)|(dB)(BG)|F2E2|D4|]
[V:2]G,2G,,2|A,,2A,,2|D,4|]

